!!!COM: Mozart
!!!OTL: 8 Variationen uber das Lied "Ein Weib ist das herrlichste Ding"
!!!Variation: Variation 6 b
**function	**harm	**kern	**kern
*	*	*clefF4	*clefG2
*	*	*k[b-e-a-d-]	*k[b-e-a-d-]
*M3/4	*M3/4	*M3/4	*M3/4
*f:	*f:	*f:	*f:
4T	4V	4r	8c'L
.	.	.	8c'J
=290	=290	=290	=290
2.T	2.i	(4F	(8c
.	.	.	4f
.	.	4A-	.
.	.	.	4a-
.	.	4c)	.
.	.	.	8f)
=291	=291	=291	=291
2.T	2.V7b	(4E	(8c
.	.	.	4g
.	.	4G	.
.	.	.	4b-
.	.	4c)	.
.	.	.	[8g)
=292	=292	=292	=292
4T	4i	(4F	(8g]
.	.	.	4a-
4T	4VI	4D-	.
.	.	.	4f)
4T	4iio7b	4BB-)	.
.	.	.	8g 8b-
=293	=293	=293	=293
4T	4Cc	2C	(4f 4a-
2T	2V	.	4e) 4g
.	.	4r	8cc'L
.	.	.	8cc'J
=294	=294	=294	=294
4T	4ib	(4A- 4f	(8dd-
.	.	.	4cc
4T	4V7c	4G 4e	.
.	.	.	4b-
4T	4i	4F) 4f	.
.	.	.	[8a-
=295	=295	=295	=295
2.P	2.iiom7b	2.B- 2.d-	8a-L]
.	.	.	8gJ
.	.	.	8b-L
.	.	.	8dd-J
.	.	.	8b-L
.	.	.	8gJ)
=296	=296	=296	=296
*	*	*^	*
4D	4Cc	(4A-	2.C	8r
.	.	.	.	(4f
2D	2V7	4B-	.	.
.	.	.	.	4g
.	.	4G)	.	.
.	.	.	.	8e)
=297	=297	=297	=297	=297
2T	2i	4A-	4F	4f
*	*	*v	*v	*
.	.	4r	4FF
*-	*-	*-	*-
